packages/kaspersky-hexa-ui-icons/src/iconsSVGs/16/StatusSearchOutline.svg

<svg width="16" height="16" viewBox="0 0 16 16" fill="none" xmlns="http://www.w3.org/2000/svg">
<path fill-rule="evenodd" clip-rule="evenodd" d="M8 15C11.866 15 15 11.866 15 8C15 4.13401 11.866 1 8 1C4.13401 1 1 4.13401 1 8C1 11.866 4.13401 15 8 15ZM12.4192 11.6003C13.2199 10.6188 13.7 9.36546 13.7 8C13.7 4.85198 11.148 2.3 8 2.3C4.85198 2.3 2.3 4.85198 2.3 8C2.3 11.148 4.85198 13.7 8 13.7C9.31414 13.7 10.5244 13.2553 11.4885 12.5081L9.97219 10.9919C9.40652 11.3655 8.72866 11.583 8 11.583C6.02116 11.583 4.41699 9.97884 4.41699 8C4.41699 6.02116 6.02116 4.41699 8 4.41699C9.97884 4.41699 11.583 6.02116 11.583 8C11.583 8.78044 11.3335 9.50261 10.9099 10.0911L12.4192 11.6003ZM8 10.283C9.26087 10.283 10.283 9.26087 10.283 8C10.283 6.73913 9.26087 5.71699 8 5.71699C6.73913 5.71699 5.71699 6.73913 5.71699 8C5.71699 9.26087 6.73913 10.283 8 10.283Z" fill="black"/>
</svg>

<svg xmlns="http://www.w3.org/2000/svg" width="16" height="16" fill="none" viewBox="0 0 16 16"><path fill="#000" fill-rule="evenodd" d="M8 15c3.866 0 7-3.134 7-7s-3.134-7-7-7-7 3.134-7 7 3.134 7 7 7m4.4192-3.3997A5.676 5.676 0 0 0 13.7 8c0-3.148-2.552-5.7-5.7-5.7S2.3 4.852 2.3 8s2.552 5.7 5.7 5.7a5.675 5.675 0 0 0 3.4885-1.1919l-1.5163-1.5162A3.567 3.567 0 0 1 8 11.583c-1.9788 0-3.583-1.6042-3.583-3.583S6.0212 4.417 8 4.417 11.583 6.0212 11.583 8a3.567 3.567 0 0 1-.6731 2.0911zM8 10.283c1.2609 0 2.283-1.0221 2.283-2.283S9.2609 5.717 8 5.717 5.717 6.739 5.717 8 6.739 10.283 8 10.283"/></svg>
